evolvere-2-blue-mono/apps/24/xmind.svg

<?xml version="1.0" encoding="UTF-8"?>
<!-- Created with Inkscape (http://www.inkscape.org/) -->
<svg width="24" height="24" version="1.1" xmlns="http://www.w3.org/2000/svg" xmlns:cc="http://creativecommons.org/ns#" xmlns:dc="http://purl.org/dc/elements/1.1/" xmlns:rdf="http://www.w3.org/1999/02/22-rdf-syntax-ns#">
	<defs>
		<style id="current-color-scheme" type="text/css">.ColorScheme-Text {color:#090d11;}.ColorScheme-Background{color:#ffffff;}</style>
	</defs>
	<metadata>
		<rdf:RDF>
			<cc:Work rdf:about="">
				<dc:format>image/svg+xml</dc:format>
				<dc:type rdf:resource="http://purl.org/dc/dcmitype/StillImage"/>
			</cc:Work>
		</rdf:RDF>
	</metadata>
	<g transform="translate(3393.2 -1642.2)">
		<path id="d" class="ColorScheme-Text" transform="translate(-3393.2 1642.2)" d="m8.0938 6.5742c-0.161-0.00584-0.60047 0.072672-2.3086 0.37305-2.4811 0.4365-2.5744 0.46007-2.7324 0.70117-0.071 0.1067-0.069 0.14562 0 0.44922 0.2259 0.9251 0.80124 1.6836 1.7773 2.3418 0.3942 0.2659 1.1281 0.60788 2.125 0.98828 1.0834 0.4134 1.4111 0.58118 1.4961 0.76758 0.053 0.1145 0.041347 0.1378-0.12695 0.2832-0.1118 0.096-0.49381 0.28753-0.97461 0.48633-1.7097 0.7068-2.4882 1.1501-3.1094 1.7734-0.6278 0.6302-0.87305 1.2035-0.87305 2.0391 0 0.645 0.091628 0.72016 0.73633 0.59766l0.00391 2e-3c0.1444-0.027 0.99317-0.1819 1.8848-0.3418 0.8917-0.1598 1.6971-0.32193 1.791-0.36133 0.2153-0.09 0.24305-0.16668 0.31055-0.85938 0.091-0.9419 0.28277-1.4044 0.76367-1.8438 0.4888-0.4469 1.0968-0.64498 1.9707-0.64648 1.4021 0 2.7102 0.53984 3.5996 1.4941 0.4021 0.4315 0.68119 0.91393 0.93359 1.6113 0.218 0.6023 0.34369 0.75195 0.62109 0.75195 0.1713 0 4.0822-0.67497 4.5938-0.79297 0.1801-0.041 0.29247-0.10115 0.35547-0.18555 0.089-0.1195 0.08967-0.13773 0.01367-0.48633-0.09-0.4034-0.36982-1.0396-0.60742-1.3848-0.2478-0.3603-0.71481-0.83539-1.1328-1.1504-0.5936-0.4473-1.2287-0.79984-2.4082-1.3398-1.2106-0.5543-1.3828-0.65787-1.3828-0.82617 0-0.1862 0.19288-0.28746 0.95898-0.50586 1.4901-0.4248 2.121-0.8762 2.4062-1.7168 0.093-0.2736 0.10293-0.38684 0.08203-0.89844-0.028-0.7038-0.11016-0.95376-0.35156-1.0684-0.2232-0.1054-0.48078-0.096078-1.2969 0.044922-0.3861 0.068-1.2174 0.21151-1.8457 0.32031-1.1768 0.2037-1.3872 0.26664-1.4395 0.43164-0.017 0.053 0.03499 0.34754 0.11719 0.65234 0.1716 0.6388 0.18149 0.81153 0.05859 1.082-0.2429 0.5347-1.0136 0.85352-2.0664 0.85352-0.5513 0-0.91068-0.08654-1.4258-0.33984-0.9298-0.4583-1.5864-1.2711-2.0176-2.5-0.1876-0.53445-0.27333-0.70273-0.39453-0.76763-0.028275-0.01525-0.051803-0.027352-0.10547-0.029297z" style="fill-opacity:.75;fill:currentColor"/>
		<path id="b" class="ColorScheme-Background" transform="translate(-3393.2 1642.2)" d="m8.1562 5.375c-0.2078-0.01-0.35455 0.01025-0.53125 0.03125-0.3533 0.05-0.89255 0.14345-2.0312 0.34375-1.2418 0.2185-1.8874 0.3203-2.3438 0.4375-0.2282 0.059-0.4418 0.12985-0.6875 0.28125-0.2457 0.1513-0.4357 0.4018-0.5 0.5-0.076 0.1146-0.2512 0.5239-0.25 0.8125 0 0.2887 0.0265 0.4021 0.0625 0.5625v0.03125c0.3015 1.2347 1.1324 2.2877 2.2812 3.0625 0.4653 0.3138 1.1764 0.5694 1.9375 0.875-1.0937 0.5072-2.0929 0.9659-2.6875 1.5625-0.7741 0.7771-1.25 1.8358-1.25 2.9062 0 0.1898 0.0145 0.34985 0.0625 0.59375 0.047 0.2439 0.18815 0.62745 0.53125 0.90625 0.3431 0.2789 0.72305 0.34395 0.96875 0.34375 0.1357-1e-4 0.23665-0.0475 0.34375-0.0625l0.09375 0.03125 0.1875-0.0625c0.1196-0.022 0.9849-0.1529 1.875-0.3125 0.4537-0.081 0.88215-0.182 1.2188-0.25 0.1683-0.034 0.28805-0.06675 0.40625-0.09375 0.1181-0.027 0.09005 0.03925 0.40625-0.09375 0.2031-0.085 0.739-0.52945 0.875-0.90625s0.12145-0.61085 0.15625-0.96875c0.079-0.8187 0.085-0.7979 0.375-1.0625 0.2547-0.2329 0.4956-0.34255 1.1875-0.34375 1.0935 0 2.0754 0.4347 2.7188 1.125 0.2875 0.3085 0.4714 0.62165 0.6875 1.2188 0.1229 0.3395 0.18965 0.5984 0.46875 0.9375 0.279 0.3392 0.92515 0.59375 1.2812 0.59375 0.2082 0 0.16705-0.02425 0.21875-0.03125 0.052-0.01 0.09005 0.01 0.15625 0 0.1334-0.02 0.32905-0.06075 0.53125-0.09375 0.4046-0.066 0.9032-0.1576 1.4375-0.25 1.0685-0.1848 2.0809-0.3409 2.5-0.4375 0.3183-0.072 0.7493-0.23655 1.0625-0.65625 0.062-0.083 0.3038-0.50995 0.3125-0.84375 0.01-0.3338-0.05475-0.4465-0.09375-0.625-0.1462-0.6551-0.40135-1.2292-0.78125-1.7812-0.3687-0.536-0.86955-1.0331-1.4062-1.4375-0.5087-0.3834-1.2196-0.72205-1.9688-1.0938 0.2416-0.115 0.5379-0.19255 0.75-0.34375 0.561-0.3999 0.9792-1.0111 1.1875-1.625 0.117-0.3441 0.17805-0.7783 0.15625-1.3125-0.016-0.3931-0.03195-0.71715-0.15625-1.0938-0.1241-0.3766-0.4964-0.85155-0.875-1.0312-0.2858-0.135-0.6896-0.16705-1-0.15625-0.3103 0.011-0.60665 0.052-1.0312 0.125-0.381 0.067-1.2152 0.2037-1.8438 0.3125-0.5971 0.1034-0.94765 0.1499-1.2812 0.25-0.1668 0.05-0.3401 0.12345-0.5625 0.28125-0.2224 0.1579-0.45445 0.47665-0.53125 0.71875-0.1577 0.4919-0.04025 0.4706-0.03125 0.5625 0.01 0.092 0.01725 0.1694 0.03125 0.25 0.028 0.152 0.04775 0.3284 0.09375 0.5 0.01 0.02 0 0.01325 0 0.03125 0.0374 0.14514 0.07841 0.1714 0.09375 0.21875-0.071677 0.024581-0.34822 0.1875-0.9375 0.1875-0.4265 0-0.4618-0.01595-0.875-0.21875-0.6259-0.3085-1.0775-0.7863-1.4375-1.8125-0.1-0.2847-0.16665-0.49635-0.28125-0.71875s-0.31915-0.53825-0.65625-0.71875c-0.048-0.026-0.4171-0.14875-0.625-0.15625zm-0.0625 1.1875c0.053666 0.00195 0.065475 0.016 0.09375 0.03125 0.1212 0.0649 0.21865 0.24685 0.40625 0.78125 0.4312 1.2289 1.1014 2.0417 2.0312 2.5 0.5151 0.2533 0.85495 0.34375 1.4062 0.34375 1.0528 0 1.8196-0.3403 2.0625-0.875 0.1229-0.2705 0.1091-0.4237-0.0625-1.0625-0.0822-0.3048-0.11075-0.60325-0.09375-0.65625 0.0523-0.165 0.2607-0.2338 1.4375-0.4375 0.6283-0.1088 1.4576-0.2445 1.8438-0.3125 0.8161-0.141 1.058-0.1679 1.2812-0.0625 0.2414 0.1146 0.347 0.38995 0.375 1.0938 0.0209 0.5116-7.5e-4 0.6014-0.09375 0.875-0.2853 0.8406-0.91615 1.294-2.4062 1.7188-0.7661 0.2184-0.96875 0.3138-0.96875 0.5 0 0.1683 0.19565 0.28945 1.4062 0.84375 1.1795 0.54 1.8126 0.89645 2.4062 1.3438 0.418 0.315 0.8772 0.79595 1.125 1.1562 0.2376 0.3452 0.50375 0.9716 0.59375 1.375 0.076 0.3486 0.089 0.34925 0 0.46875-0.063 0.0844-0.1949 0.1465-0.375 0.1875-0.5116 0.118-4.4224 0.8125-4.5938 0.8125-0.2774 0-0.37575-0.1477-0.59375-0.75-0.2524-0.6974-0.5354-1.1935-0.9375-1.625-0.8894-0.9543-2.2229-1.5-3.625-1.5-0.8739 0.0015-1.48 0.20935-1.9688 0.65625-0.4809 0.4394-0.659 0.90185-0.75 1.8438-0.0675 0.6927-0.0972 0.785-0.3125 0.875-0.0939 0.0394-0.88955 0.18395-1.7812 0.34375-0.8916 0.1599-1.7618 0.31675-1.9062 0.34375-0.6447 0.1225-0.71875 0.05125-0.71875-0.59375 0-0.8356 0.2472-1.401 0.875-2.0312 0.6212-0.6233 1.384-1.0744 3.0938-1.7812 0.4808-0.1988 0.85695-0.404 0.96875-0.5 0.1683-0.1454 0.178-0.16675 0.125-0.28125-0.085-0.1864-0.38535-0.3366-1.4688-0.75-0.9969-0.3804-1.7308-0.7341-2.125-1-0.9761-0.6582-1.5554-1.4186-1.7812-2.3438-0.069-0.3036-0.071-0.3308 0-0.4375 0.158-0.2411 0.23765-0.28225 2.7188-0.71875 1.7081-0.30038 2.1515-0.38084 2.3125-0.375z" style="fill-opacity:.5;fill:currentColor"/>
	</g>
</svg>

<?xml version="1.0" encoding="UTF-8" standalone="no"?>
<!-- Created with Inkscape (http://www.inkscape.org/) -->

<svg
   xmlns:dc="http://purl.org/dc/elements/1.1/"
   xmlns:cc="http://creativecommons.org/ns#"
   xmlns:rdf="http://www.w3.org/1999/02/22-rdf-syntax-ns#"
   xmlns:svg="http://www.w3.org/2000/svg"
   xmlns="http://www.w3.org/2000/svg"
   xmlns:sodipodi="http://sodipodi.sourceforge.net/DTD/sodipodi-0.dtd"
   xmlns:inkscape="http://www.inkscape.org/namespaces/inkscape"
   width="24"
   height="24"
   id="svg27665"
   version="1.1"
   inkscape:version="0.48.3.1 r9886"
   sodipodi:docname="xmind.svg">
  <defs
     id="defs27667" />
  <sodipodi:namedview
     id="base"
     pagecolor="#ffffff"
     bordercolor="#666666"
     borderopacity="1.0"
     inkscape:pageopacity="0.0"
     inkscape:pageshadow="2"
     inkscape:zoom="31.678384"
     inkscape:cx="12.590792"
     inkscape:cy="13.507923"
     inkscape:document-units="px"
     inkscape:current-layer="layer1"
     showgrid="true"
     inkscape:window-width="1920"
     inkscape:window-height="1023"
     inkscape:window-x="-10"
     inkscape:window-y="35"
     inkscape:window-maximized="1"
     inkscape:snap-bbox="true"
     inkscape:bbox-paths="true"
     inkscape:bbox-nodes="true"
     inkscape:snap-bbox-edge-midpoints="true"
     inkscape:snap-bbox-midpoints="true"
     inkscape:object-paths="true"
     inkscape:snap-intersection-paths="true"
     inkscape:object-nodes="true"
     inkscape:snap-smooth-nodes="true"
     inkscape:snap-midpoints="true"
     inkscape:snap-object-midpoints="true"
     inkscape:snap-center="true"
     inkscape:snap-global="true"
     showguides="false"
     inkscape:guide-bbox="true"
     fit-margin-top="0"
     fit-margin-left="0"
     fit-margin-right="0"
     fit-margin-bottom="0"
     inkscape:showpageshadow="false">
    <sodipodi:guide
       orientation="0,1"
       position="-1494.2276,523.03618"
       id="guide4179" />
    <sodipodi:guide
       orientation="1,0"
       position="-1492.0847,520.17904"
       id="guide4181" />
    <inkscape:grid
       type="xygrid"
       id="grid4279"
       empspacing="5"
       visible="true"
       enabled="true"
       snapvisiblegridlinesonly="true"
       originx="6.6056504e-05px"
       originy="592.00001px" />
  </sodipodi:namedview>
  <metadata
     id="metadata27670">
    <rdf:RDF>
      <cc:Work
         rdf:about="">
        <dc:format>image/svg+xml</dc:format>
        <dc:type
           rdf:resource="http://purl.org/dc/dcmitype/StillImage" />
        <dc:title />
      </cc:Work>
    </rdf:RDF>
  </metadata>
  <g
     inkscape:label="Camada 1"
     inkscape:groupmode="layer"
     id="layer1"
     transform="translate(3393.2465,-1642.2411)">
    <path
       inkscape:connector-curvature="0"
       id="path2998"
       d="m -3389.1386,1659.6172 c 0.1444,-0.027 0.9921,-0.1808 1.8837,-0.3407 0.8917,-0.1598 1.698,-0.3227 1.7919,-0.3621 0.2153,-0.09 0.243,-0.167 0.3105,-0.8597 0.091,-0.9419 0.2825,-1.4026 0.7634,-1.842 0.4888,-0.4469 1.0967,-0.6468 1.9706,-0.6483 1.4021,0 2.7104,0.5407 3.5998,1.495 0.4021,0.4315 0.6818,0.9135 0.9342,1.6109 0.218,0.6023 0.3421,0.7531 0.6195,0.7531 0.1713,0 4.0826,-0.6765 4.5942,-0.7945 0.1801,-0.041 0.2931,-0.1003 0.3561,-0.1847 0.089,-0.1195 0.089,-0.1377 0.013,-0.4863 -0.09,-0.4034 -0.3686,-1.0402 -0.6062,-1.3854 -0.2478,-0.3603 -0.7154,-0.8344 -1.1334,-1.1494 -0.5936,-0.4473 -1.2288,-0.801 -2.4083,-1.341 -1.2106,-0.5543 -1.3828,-0.6572 -1.3828,-0.8255 0,-0.1862 0.1924,-0.2879 0.9585,-0.5063 1.4901,-0.4248 2.1221,-0.8754 2.4074,-1.716 0.093,-0.2736 0.1029,-0.3864 0.082,-0.898 -0.028,-0.7038 -0.1106,-0.9541 -0.352,-1.0687 -0.2232,-0.1054 -0.4817,-0.096 -1.2978,0.045 -0.3861,0.068 -1.2162,0.2116 -1.8445,0.3204 -1.1768,0.2037 -1.3882,0.2671 -1.4405,0.4321 -0.017,0.053 0.036,0.3458 0.1182,0.6506 0.1716,0.6388 0.1809,0.8125 0.058,1.083 -0.2429,0.5347 -1.0134,0.8527 -2.0662,0.8527 -0.5513,0 -0.911,-0.086 -1.4261,-0.3393 -0.9298,-0.4583 -1.5854,-1.2708 -2.0166,-2.4997 -0.1876,-0.5344 -0.2747,-0.7033 -0.3959,-0.7682 -0.1131,-0.061 -0.1363,-0.057 -2.4138,0.3435 -2.4811,0.4365 -2.5748,0.4605 -2.7328,0.7016 -0.071,0.1067 -0.069,0.1463 0,0.4499 0.2259,0.9251 0.8015,1.6833 1.7776,2.3415 0.3942,0.2659 1.1279,0.6068 2.1248,0.9872 1.0834,0.4134 1.4113,0.5818 1.4963,0.7682 0.053,0.1145 0.041,0.1383 -0.1273,0.2837 -0.1118,0.096 -0.4928,0.2864 -0.9736,0.4852 -1.7097,0.7068 -2.4889,1.1514 -3.1101,1.7747 -0.6278,0.6302 -0.8732,1.2033 -0.8732,2.0389 0,0.645 0.092,0.7205 0.7367,0.598 z"
       style="color:#000000;fill:#27303a;fill-opacity:0.753280819999999968;fill-rule:nonzero;stroke:none;stroke-width:2.10179186;marker:none;visibility:visible;display:inline;overflow:visible;enable-background:accumulate" />
    <path
       style="font-size:medium;font-style:normal;font-variant:normal;font-weight:normal;font-stretch:normal;text-indent:0;text-align:start;text-decoration:none;line-height:normal;letter-spacing:normal;word-spacing:normal;text-transform:none;direction:ltr;block-progression:tb;writing-mode:lr-tb;text-anchor:start;baseline-shift:baseline;color:#000000;fill:#f1f3f5;fill-opacity:0.90288714000000003;fill-rule:nonzero;stroke:none;stroke-width:2;marker:none;visibility:visible;display:inline;overflow:visible;enable-background:accumulate;font-family:Sans;-inkscape-font-specification:Sans"
       d="M 8.15625 5.375 C 7.94845 5.365 7.8017 5.38525 7.625 5.40625 C 7.2717 5.45625 6.73245 5.5497 5.59375 5.75 C 4.35195 5.9685 3.7064 6.0703 3.25 6.1875 C 3.0218 6.2465 2.8082 6.31735 2.5625 6.46875 C 2.3168 6.62005 2.1268 6.87055 2.0625 6.96875 C 1.9865 7.08335 1.8113 7.49265 1.8125 7.78125 C 1.8125 8.06995 1.839 8.18335 1.875 8.34375 L 1.875 8.375 C 2.1765 9.6097 3.00735 10.6627 4.15625 11.4375 C 4.62155 11.7513 5.33265 12.0069 6.09375 12.3125 C 5.00005 12.8197 4.00085 13.2784 3.40625 13.875 C 2.63215 14.6521 2.15625 15.71075 2.15625 16.78125 C 2.15625 16.97105 2.17075 17.1311 2.21875 17.375 C 2.26575 17.6189 2.4069 18.00245 2.75 18.28125 C 3.0931 18.56015 3.47305 18.6252 3.71875 18.625 C 3.85445 18.6249 3.9554 18.5775 4.0625 18.5625 L 4.15625 18.59375 L 4.34375 18.53125 C 4.46335 18.50925 5.32865 18.37835 6.21875 18.21875 C 6.67245 18.13775 7.1009 18.03675 7.4375 17.96875 C 7.6058 17.93475 7.72555 17.902 7.84375 17.875 C 7.96185 17.848 7.9338 17.91425 8.25 17.78125 C 8.4531 17.69625 8.989 17.2518 9.125 16.875 C 9.261 16.4982 9.24645 16.26415 9.28125 15.90625 C 9.36025 15.08755 9.36625 15.10835 9.65625 14.84375 C 9.91095 14.61085 10.15185 14.5012 10.84375 14.5 C 11.93725 14.5 12.9191 14.9347 13.5625 15.625 C 13.85 15.9335 14.0339 16.24665 14.25 16.84375 C 14.3729 17.18325 14.43965 17.44215 14.71875 17.78125 C 14.99775 18.12045 15.6439 18.375 16 18.375 C 16.2082 18.375 16.16705 18.35075 16.21875 18.34375 C 16.27075 18.33375 16.3088 18.35375 16.375 18.34375 C 16.5084 18.32375 16.70405 18.283 16.90625 18.25 C 17.31085 18.184 17.80945 18.0924 18.34375 18 C 19.41225 17.8152 20.42465 17.6591 20.84375 17.5625 C 21.16205 17.4905 21.59305 17.32595 21.90625 16.90625 C 21.96825 16.82325 22.21005 16.3963 22.21875 16.0625 C 22.22875 15.7287 22.164 15.616 22.125 15.4375 C 21.9788 14.7824 21.72365 14.20835 21.34375 13.65625 C 20.97505 13.12025 20.4742 12.62315 19.9375 12.21875 C 19.4288 11.83535 18.71785 11.4967 17.96875 11.125 C 18.21035 11.01 18.50665 10.93245 18.71875 10.78125 C 19.27975 10.38135 19.69795 9.77015 19.90625 9.15625 C 20.02325 8.81215 20.0843 8.37795 20.0625 7.84375 C 20.0465 7.45065 20.03055 7.1266 19.90625 6.75 C 19.78215 6.3734 19.40985 5.89845 19.03125 5.71875 C 18.74545 5.58375 18.34165 5.5517 18.03125 5.5625 C 17.72095 5.5735 17.4246 5.6145 17 5.6875 C 16.619 5.7545 15.78475 5.8912 15.15625 6 C 14.55915 6.1034 14.2086 6.1499 13.875 6.25 C 13.7082 6.3 13.5349 6.37345 13.3125 6.53125 C 13.0901 6.68915 12.85805 7.0079 12.78125 7.25 C 12.62355 7.7419 12.741 7.7206 12.75 7.8125 C 12.76 7.9045 12.76725 7.9819 12.78125 8.0625 C 12.80925 8.2145 12.829 8.3909 12.875 8.5625 C 12.885 8.5825 12.875 8.57575 12.875 8.59375 C 12.912397 8.738887 12.953411 8.7651452 12.96875 8.8125 C 12.897073 8.8370812 12.620525 9 12.03125 9 C 11.60475 9 11.56945 8.98405 11.15625 8.78125 C 10.53035 8.47275 10.07875 7.99495 9.71875 6.96875 C 9.61875 6.68405 9.5521 6.4724 9.4375 6.25 C 9.3229 6.0276 9.11835 5.71175 8.78125 5.53125 C 8.73325 5.50525 8.36415 5.3825 8.15625 5.375 z M 8.09375 6.5625 C 8.1474156 6.5644453 8.159225 6.5785 8.1875 6.59375 C 8.3087 6.65865 8.40615 6.8406 8.59375 7.375 C 9.02495 8.6039 9.6952 9.4167 10.625 9.875 C 11.1401 10.1283 11.47995 10.21875 12.03125 10.21875 C 13.08405 10.21875 13.85085 9.87845 14.09375 9.34375 C 14.21665 9.07325 14.20285 8.92005 14.03125 8.28125 C 13.94905 7.97645 13.9205 7.678 13.9375 7.625 C 13.9898 7.46 14.1982 7.3912 15.375 7.1875 C 16.0033 7.0787 16.83265 6.943 17.21875 6.875 C 18.03485 6.734 18.2768 6.7071 18.5 6.8125 C 18.7414 6.9271 18.847 7.20245 18.875 7.90625 C 18.8959 8.41785 18.87425 8.50765 18.78125 8.78125 C 18.49595 9.62185 17.8651 10.0752 16.375 10.5 C 15.6089 10.7184 15.40625 10.8138 15.40625 11 C 15.40625 11.1683 15.6019 11.28945 16.8125 11.84375 C 17.992 12.38375 18.62515 12.7402 19.21875 13.1875 C 19.63675 13.5025 20.09595 13.98345 20.34375 14.34375 C 20.58135 14.68895 20.8475 15.31535 20.9375 15.71875 C 21.0135 16.06735 21.0265 16.068 20.9375 16.1875 C 20.8745 16.2719 20.7426 16.334 20.5625 16.375 C 20.0509 16.493 16.14005 17.1875 15.96875 17.1875 C 15.69135 17.1875 15.593 17.0398 15.375 16.4375 C 15.1226 15.7401 14.8396 15.244 14.4375 14.8125 C 13.5481 13.8582 12.2146 13.3125 10.8125 13.3125 C 9.9386 13.314 9.33255 13.52185 8.84375 13.96875 C 8.36285 14.40815 8.18475 14.8706 8.09375 15.8125 C 8.02625 16.5052 7.99655 16.5975 7.78125 16.6875 C 7.68735 16.7269 6.8917 16.87145 6 17.03125 C 5.1084 17.19115 4.23815 17.348 4.09375 17.375 C 3.44905 17.4975 3.375 17.42625 3.375 16.78125 C 3.375 15.94565 3.6222 15.3802 4.25 14.75 C 4.8712 14.1267 5.63405 13.67555 7.34375 12.96875 C 7.82455 12.76995 8.2007 12.56475 8.3125 12.46875 C 8.4808 12.32335 8.4905 12.302 8.4375 12.1875 C 8.3525 12.0011 8.05215 11.8509 6.96875 11.4375 C 5.97185 11.0571 5.23795 10.7034 4.84375 10.4375 C 3.86765 9.7793 3.2884 9.01885 3.0625 8.09375 C 2.9935 7.79015 2.9915 7.76295 3.0625 7.65625 C 3.2205 7.41515 3.30015 7.374 5.78125 6.9375 C 7.489375 6.637125 7.9327531 6.5566641 8.09375 6.5625 z "
       transform="translate(-3393.2465,1642.2411)"
       id="path3026" />
  </g>
</svg>
